static/img/globe.svg

<svg viewBox="0 0 100 100" xmlns="http://www.w3.org/2000/svg"><g fill="#430632"><path d="m46.37 78.19a36.79 36.79 0 1 1 36.78-36.79 36.83 36.83 0 0 1 -36.78 36.79zm0-70.58a33.79 33.79 0 1 0 33.78 33.79 33.83 33.83 0 0 0 -33.78-33.79z"/><path d="m47.8 84.79v7.6h17.69a1.5 1.5 0 0 1 0 3h-38.37a1.5 1.5 0 0 1 0-3h17.68v-7.69a42.6 42.6 0 0 1 -27.66-12.49 1.5 1.5 0 0 1 2.12-2.12 39.94 39.94 0 0 0 56.49-56.49 1.5 1.5 0 1 1 2.12-2.12 42.95 42.95 0 0 1 -30.07 73.31z"/></g></svg>

<svg id="Layer_1" data-name="Layer 1" xmlns="http://www.w3.org/2000/svg" viewBox="0 0 100 100"><title>globe</title><path d="M46.37,78.19A36.79,36.79,0,1,1,83.15,41.4,36.83,36.83,0,0,1,46.37,78.19Zm0-70.58A33.79,33.79,0,1,0,80.15,41.4,33.83,33.83,0,0,0,46.37,7.61Z" fill="#430632"/><path d="M47.8,84.79v7.6H65.49a1.5,1.5,0,0,1,0,3H27.12a1.5,1.5,0,0,1,0-3H44.8V84.7A42.6,42.6,0,0,1,17.14,72.21a1.5,1.5,0,0,1,2.12-2.12A39.94,39.94,0,0,0,75.75,13.6a1.5,1.5,0,1,1,2.12-2.12A42.95,42.95,0,0,1,47.8,84.79Z" fill="#430632"/></svg>
